X:1
T:1. Berceuse (Lullaby)
T:4. Kitty-Valse 
T:Gabriel Fauré
C:Gabriel Fauré
%%score { ( 1 3 ) | 2 } { ( 4 6 ) | 5 }
L:1/8
Q:3/4=66
M:3/4
K:Eb
V:1 treble nm="Prima" snm="P."
V:3 treble 
V:2 treble 
V:4 bass nm="Seconda" snm="S."
V:6 bass 
V:5 bass 
V:1
"^Tempo di Valse"!mf! (e'2 b4) | (c'2 f4) | (g2 B2 =B2) | c6- | c[I:staff +1](=ABcde | %5
!<(![I:staff -1] fg_abc'd')!<)! |!f! (e'2 d'2 c'2 | b2 g2) !>!e2- | %8
 e[I:staff +1](=Bc[I:staff -1]de_g |!>(! e)[I:staff +1](=Bc[I:staff -1]de=g!>)! | %10
!p! d)[I:staff +1](=A_Bc!<(!de |[I:staff -1] fg_abc'd')!<)! |!mf! (e'2 b4) | (c'2 f4) | %14
!<(! (g2 B2 c2)!<)! |!>(! !>!_d6-!>)! | d[I:staff +1](=Bc=def |!<(![I:staff -1] ga_bc'd'e')!<)! | %18
!f! (g'2 f'2 e'2 | d'2 b2 g2) | d[I:staff +1](^FG=ABc |!>(![I:staff -1] z g_abc'd')!>)! | %22
!p! e'2 (f^fga |!<(! =ab=bc'^c'd')!<)! |!mf! (e'2 b4) | (c'2 f4) | (g2 B2 =B2) | c6- | %28
 c[I:staff +1](=ABcde |!<(![I:staff -1] fg_abc'd')!<)! |!f! (e'2 d'2 c'2 | b2 g2) !>!e2- | %32
 e[I:staff +1](=Bc[I:staff -1]de_g |!>(! e)[I:staff +1](=Bc[I:staff -1]de=g!>)! | %34
!p! d)[I:staff +1](=A_Bc!<(!de |[I:staff -1] fg_abc'd')!<)! |!mf! (e'2 b4) | (c'2 f4) | %38
!<(! (g2 B2 c2)!<)! |!>(! !>!_d6-!>)! | d[I:staff +1](=Bc=def |!<(![I:staff -1] ga_bc'd'e')!<)! | %42
!f! (g'2 f'2 e'2 | d'2 b2 g2) | d[I:staff +1](^FG=ABc |!>(![I:staff -1] z g_abc'd')!>)! | %46
!p! e'2!mp! (b=ac'b | =ab!fermata!g!fermata!e) !>!B2- | %48
 !fermata!B2"_espressi  vo" (.!fermata!_A2 .!fermata!G2) | (!fermata!F4 B2 | c4 B2 | _d4 c2) | %52
 (.B2 .A2 .=G2) | (F4 B2 | c4 B2 | _d4 c2) | (B2 A2 B2) |"_cresc." (c4 B2 | d4 c2 | f4 e2-) | %60
!<(! e2 .f2 .^f2!<)! |!mf! (g4 d2 |!>(! G4 B2!>)! | F4 E2) | z2!p! (.a2 .g2) | (f4 b2 | c'4 b2 | %67
 _d'4 c'2) | (.b2 .a2 .=g2) | (f4 b2 | c'4 b2 | _d'4 c'2) | (.b2 .a2 .b2) |"_cresc." (c'4 b2 | %74
 =d'4 c'2 | f'4 e'2-) |!<(! e'2 f'2 ^f'2!<)! |!f! (g'4 d'2 |!>(! g4 b2!>)! | [Af]4 [Ge]2) | %80
 z2!p! (c4 | _d4 B2- | B2 e4 |!<(! f4 _g2- | g2 =g4!<)! |!>(! a4 _g2- | g2 _f4 | e4 _d2-)!>)! | %88
 d2!p! .c'2 x2 | ._d'2 x2 .b2 | x2 .e'2 x2 |!<(! .f'2 x2 ._g'2 | x2 .=g'2 x2!<)! | %93
!>(! .a'2 x2 .e'2 | x2 .c'2 x2 | .b2 x2 .a2!>)! | z2 (c4 | _d4 B2- | B2 e4 |!<(! f4 _g2- | %100
 g2 =g4!<)! |!>(! a4 _g2- | g2 _f4 | e4 _d2-)!>)! | d2!p! .c'2 x2 | ._d'2 x2 .b2 | x2 .e'2 x2 | %107
!<(! .f'2 x2 ._g'2 | x2 .=g'2 x2!<)! |!>(! .a'2 x2 .e'2 | x2 .c'2 x2 | .b2 x2 .a2!>)! | z6 | %113
!mf! (e'2 b4) | (c'2 f4) | (g2 B2 =B2) | c6- | c[I:staff +1](=ABcde | %118
!<(![I:staff -1] fg_abc'd')!<)! |!f! (e'2 d'2 c'2 | b2 g2) !>!e2- | %121
 e[I:staff +1](=Bc[I:staff -1]de_g |!>(! e)[I:staff +1](=Bc[I:staff -1]de=g!>)! | %123
!p! d)[I:staff +1](=A!courtesy!_Bc!<(!de |[I:staff -1] fg_abc'd')!<)! |!mf! (e'2 b4) | (c'2 f4) | %127
!<(! (g2 B2 c2)!<)! |!>(! _d6-!>)! | d[I:staff +1](=Bc=def |!<(![I:staff -1] ga_bc'd'e')!<)! | %131
!f! (g'2 f'2 e'2 | d'2 b2 g2) | d[I:staff +1](^FG=ABc |!>(![I:staff -1] z g_abc'd'!>)! | %135
!p! e'2)!mp! (b=ac'b | =ab!fermata!g!fermata!e) !fermata!B2- | %137
 (!fermata!B2 !fermata!A2 !fermata!G2) | (!fermata!F4 B2 | c4 B2 |!<(! d4 c2 | f4 e2-)!<)! | %142
!mf! e2 (._g2 .e2 | .f2 ._d2 .e2 |!>(! ._c2 ._d2)!>)!!p! (!>!b2- | b2 a2 !fermata!_g2 | f4 b2 | %147
 c'4 b2 |!<(! d'4 c'2 | f'4 e'2)!<)! |!p!!8va(! _g'4 [_e'a']2- | [e'a']2 [d'b']4 | [e'b']6- | %153
[Q:1/4=189]"^63" [e'b']6 |!pp! _g'4 [_e'a']2- | [e'a']2 [d'b']4 | [e'b']6- | [e'b']6 | [e'b']6- | %159
 [e'b']6 | !fermata![e'b']6!8va)! |] %161
V:2
 (e2 B4) | (c2 F4) | G2 z2 z2 | z6 | x6 | z6 | (e2 d2 c2 | B2 G2) z2 | x6 | x6 | x6 | z6 | %12
 (e2 B4) | (c2 F4) | G2 z2 z2 | z6 | x6 | z6 | (g2 f2 e2 | d2 B2 G2) | x6 | (d4 f2) | e2 z2 z2 | %23
 z6 | (e2 B4) | (c2 F4) | G2 z2 z2 | z6 | x6 | z6 | (e2 d2 c2 | B2 G2) z2 | x6 | x6 | x6 | z6 | %36
 (e2 B4) | (c2 F4) | G2 z2 z2 | z6 | x6 | z6 | (g2 f2 e2 | d2 B2 G2) | x6 | (d4 f2) | e2 z2 z2 | %47
 z6 | z6 | z6 | z2!p! ._F2 .F2 | z2 ._G2 .G2 | z6 | z6 | z2!p! ._F2 .F2 | z2 ._G2 .G2 | z6 | %57
 z2 F2 F2 | z2 G2 G2 | z2!mp! .=A2 .A2 | z2 .=A2 ._A2 | z6 | z6 | z6 | z2 (.A2 .G2) | (F4 B2 | %66
 c4 B2 | _d4 c2) | (.B2 .A2 .=G2) | (F4 B2 | c4 B2 | _d4 c2) | (.B2 .A2 .B2) | (c4 B2 | =d4 c2 | %75
 f4 e2-) | e2 f2 ^f2 | (g4 d2 | G4 B2 | F4 E2) | z6 | z6 | z6 | z6 | z6 | z6 | z6 | z6 | %88
 z2 z2 .c2 | x2 ._d2 x2 | .B2 x2 .e2 | x2 .f2 x2 | ._g2 x2 .=g2 | x2 .a2 x2 | .e2 x2 .c2 | %95
 x2 .B2 x2 | z6 | z6 | z6 | z6 | z6 | z6 | z6 | z6 | z2 z2 .c2 | x2 ._d2 x2 | .B2 x2 .e2 | %107
 x2 .f2 x2 | ._g2 x2 .=g2 | x2 .a2 x2 | .e2 x2 .c2 | x2 .B2 x2 | z6 | (e2 B4) | (c2 F4) | %115
 G2 z2 z2 | z6 | x6 | z6 | (e2 d2 c2 | B2 G2) z2 | x6 | x6 | x6 | z6 | (e2 B4) | (c2 F4) | %127
 G2 z2 z2 | z6 | x6 | z6 | (g2 f2 e2 | d2 B2 G2) | x6 | (d4 f2) | e2 z2 z2 | z6 | z6 | z6 | %139
 z2!p! .F2 .F2 | z2 .G2 .G2 | z2!p! .=A2 .A2 | z6 | z6 | z2 z2 (!>!B2- | B2 A2 _G2 | F4 B2 | %147
 c4 B2 | d4 c2 | f4 e2) | _g4 [_ea]2- | [ea]2 [db]4 | [eb]6- | [eb]6 | _g4 [_ea]2- | [ea]2 [db]4 | %156
 [eb]6- | [eb]6 | [eb]6- | [eb]6 | !fermata![eb]6 |] %161
V:3
 x6 | x6 | x6 | x6 | x6 | x6 | x6 | x6 | x6 | x6 | x6 | x6 | x6 | x6 | x6 | x6 | x6 | x6 | x6 | %19
 x6 | x6 | x6 | x6 | x6 | x6 | x6 | x6 | x6 | x6 | x6 | x6 | x6 | x6 | x6 | x6 | x6 | x6 | x6 | %38
 x6 | x6 | x6 | x6 | x6 | x6 | x6 | x6 | x6 | x6 | x6 | x6 | x6 | x6 | x6 | x6 | x6 | x6 | x6 | %57
 x6 | x6 | x6 | x6 | x6 | x6 | x6 | x6 | x6 | z2 _f2 f2 | z2 _g2 g2 | x6 | x6 | z2 _f2 f2 | %71
 z2 _g2 g2 | x6 | z2 f2 f2 | z2 =g2 g2 | z2 =a2 a2 | z2 =a2 _a2 | x6 | x6 | x6 | x6 | x6 | x6 | %83
 x6 | x6 | x6 | x6 | x6 | x6 | x6 | x6 | x6 | x6 | x6 | x6 | x6 | x6 | x6 | x6 | x6 | x6 | x6 | %102
 x6 | x6 | x6 | x6 | x6 | x6 | x6 | x6 | x6 | x6 | x6 | x6 | x6 | x6 | x6 | x6 | x6 | x6 | x6 | %121
 x6 | x6 | x6 | x6 | x6 | x6 | x6 | x6 | x6 | x6 | x6 | x6 | x6 | x6 | x6 | x6 | x6 | x6 | x6 | %140
 x6 | x6 | x6 | x6 | x6 | x6 | x6 | z2 f2 f2 | z2 g2 g2 | z2 =a2 a2 |!8va(! x6 | x6 | x6 | x6 | %154
 x6 | x6 | x6 | x6 | x6 | x6 | x6!8va)! |] %161
V:4
 x2!mp! [G,B,E]4 | x2 [A,CE]4 | z2 D4- | ([F,D]!mf!G,A,B,CD | [G,E]2) z2 z2 | z6 | %6
 x2!mf! [G,B,EG]4 | x2 [B,C]4 |[K:treble] z2 ([EB]2 C2) |!>(! z2 (^G2 =A2)!>)! | %10
[K:bass] z2 ([G,B,D-]4 | [F,_A,D]6) | x2!mp! [G,B,E]4 | x2 [A,CE]4 | z2!<(! (D2 E2)!<)! | =E4 x2 | %16
 [A,F]2 z2 z2 | z6 | x2!mf! [E,=A,CE]4 | x2 [D,G,B,D]4 | x2 [G,B,=E]4 |!>(! x2 [A,DF]4!>)! | %22
!p! [G,B,E]2[K:treble] (dc_cB |!<(! =A_AG_GF_F)!<)! |[K:bass] x2!mp! [G,B,E]4 | x2 [A,CE]4 | %26
 z2 D4- | ([F,D]!mf!G,A,B,CD | [G,E]2) z2 z2 | z6 | x2!mf! [G,B,EG]4 | x2 [B,C]4 | %32
[K:treble] z2 ([EB]2 C2) |!>(! z2 (^G2 =A2)!>)! |[K:bass] z2 ([G,B,D-]4 | [F,_A,D]6) | %36
 x2!mp! [G,B,E]4 | x2 [A,CE]4 | z2!<(! (D2 E2)!<)! |!f!!>(! =E4 x2!>)! | [A,F]2 z2 z2 | z6 | %42
 x2!mf! [E,=A,CE]4 | x2 [D,G,B,D]4 | x2 [G,B,=E]4 |!>(! x2 [A,DF]4!>)! |!p! [G,B,E]2 z2 z2 | z6 | %48
 z6 |!p! z2 (A,2 G,2 | _G,_F,G,A, B,2) | (A,_G,A,B, C2) | (_D2 C2 B,2-) | (B,2 A,2 =E,2) | %54
 (_G,_F,G,A, B,2) | (A,_G,A,B, C2) | (_D2 C2 B,2) |"_cresc." (B,A,B,C =D2) | (CB,CD =E2) | %59
[K:treble]!<(! (_EDEF _G2-!<)! |!mf! G2 F2 E2) |[K:bass]!>(! D(D,G,=B, D2-)!>)! | D(D,_A,_B, D2) | %63
 z (B,,E,G, B,2) | z6 |!p! z2 (A,2 G,2 | _G,_F,G,A, B,2) | (A,_G,A,B, C2) | (_D2 C2 B,2-) | %69
 (B,2 A,2 =E,2) | (_G,_F,G,A, B,2) | (A,_G,A,B, C2) | (_D2 C2 B,2) |"_cresc." (B,A,B,C =D2) | %74
 (CB,CD =E2) |[K:treble]!<(! (_EDEF _G2-!<)! | G2 F2 E2) |[K:bass]!f! D(D,G,=B, D2-) | %78
!>(! D(D,_A,_B, D2)!>)! | z (B,,E,G, B,2) | z2!p! ([E,A,C]4 | [E,G,_D]4 [E,G,B,]2- | %82
 [E,G,B,]2 [E,A,E]4 |[K:treble]!<(! [=A,CF]4 [B,_D_G]2- | [B,DG]2 [B,=E=G]4!<)! | %85
!>(! [_C_F_A]4 [CE_G]2- | [CEG]2 [A,D_F]4!>)! |[K:bass] [=G,=CE]4 [G,B,_D]2- | [G,B,D]2 [E,A,C]4 | %89
 [E,G,_D]4 [E,G,B,]2- | [E,G,B,]2 [E,A,E]4 |[K:treble]!<(! [=A,CF]4 [B,_D_G]2- | %92
 [B,DG]2 [B,=E=G]4!<)! |!>(! [A,_EA]4 [G,=B,E]2- | [G,B,E]2[K:bass] [E,G,C]4 | %95
 [_D,G,!courtesy!_B,]4 [C,E,A,]2)!>)! | z2 ([E,A,C]4 | [E,G,_D]4 [E,G,B,]2- | [E,G,B,]2 [E,A,E]4 | %99
[K:treble]!<(! [=A,CF]4 [B,_D_G]2- | [B,DG]2 [B,=E=G]4!<)! |!>(! [_C_F_A]4 [CE_G]2- | %102
 [CEG]2 [A,_D_F]4!>)! |[K:bass] [=G,=CE]4 [G,B,_D]2- | [G,B,D]2 [E,A,C]4 | [E,G,_D]4 [E,G,B,]2- | %106
 [E,G,B,]2 [E,A,E]4 |[K:treble]!<(! [=A,CF]4 [B,_D_G]2- | [B,DG]2 [B,=E=G]4!<)! | %109
!>(! [A,_EA]4 [F,=B,E]2- | [F,B,E]2[K:bass] [E,G,C]4 | [_D,G,!courtesy!_B,]4 [C,E,A,]2-)!>)! | %112
 [C,E,A,]2 z2 z2 | x2!mp! [G,B,E]4 | x2 [A,CE]4 | z2 D4- | ([F,D]!mf!G,A,B,CD | [G,E]2) z2 z2 | %118
 z6 | x2!mf! [G,B,EG]4 | x2 [B,C]4 |[K:treble] z2 ([EB]2 C2) |!>(! z2 (^G2 =A2)!>)! | %123
[K:bass] z2 ([G,B,D-]4 | [F,_A,D]6) | x2!mp! [G,B,E]4 | x2 [A,CE]4 | z2!<(! (D2 E2)!<)! | %128
!>(! =E4 x2!>)! | [A,F]2 z2 z2 | z6 | x2!mf! [E,=A,CE]4 | x2 [D,G,B,D]4 | x2 [G,B,=E]4 | %134
!>(! x2 [A,DF]4!>)! |!p! [G,B,E]2 z2 z2 | z6 |[K:treble]!p! (B,2 C2 ^C2 | DED=C B,2-) | %139
 (B,A,B,C D2) |!<(! (CB,CD =E2) | (_EDEF _G2-)!<)! | [B,_DG]6 |!>(! [A,_CF]6 | %144
 [_G,B,_G]2!>)! z2 z2 |!p! (B,2 C2 ^C2 | DED=C B,2-) | (B,A,B,C D2) |!<(! (CB,CD =E2) | %149
 (_EDEF _G2-)!<)! |!p! [B,_DG]4 [A,EFA]2- | [A,EFA]2 [A,=DFA]4 | [=G,B,E=G]6- | [G,B,EG]6 | %154
!pp! [B,_D_G]4 [A,EFA]2- | [A,EFA]2 [A,=DFA]4 | [=G,B,E=G]6- | [G,B,EG]6 | [G,B,EG]6- | [G,B,EG]6 | %160
 !fermata![G,B,EG]6 |] %161
V:5
!mf!!ped! E,,2 x4!ped-up! |!ped! A,,2 x4!ped-up! |!ped! B,,6!ped-up! | E,,2 z2 z2 | z6 | z6 | %6
!f!!ped! C,2 x4!ped-up! |!ped! E,2 x4!ped-up! |!ped! _G,6!ped-up! |!f! F,2 z2 z2 |!p! B,,2 z2 z2 | %11
 z6 |!mf!!ped! E,,2 x4!ped-up! |!ped! A,,2 x4!ped-up! |!ped! B,,2 z2 z2!ped-up! | A,,6- | %16
 A,,2 z2 z2 | z6 |!f!!ped! F,,2 x4!ped-up! |!ped! G,,2 x4!ped-up! |!ped! [C,,C,]2 x4!ped-up! | %21
!ped! [B,,,B,,]2 x4!ped-up! | E,,2 z2 z2 | z6 |!mf!!ped! E,,2 x4!ped-up! |!ped! A,,2 x4!ped-up! | %26
!ped! B,,6!ped-up! | E,,2 z2 z2 | z6 | z6 |!f!!ped! C,2 x4!ped-up! |!ped! E,2 x4!ped-up! | %32
!ped! _G,6!ped-up! |!f! F,2 z2 z2 |!p! B,,2 z2 z2 | z6 |!mf!!ped! E,,2 x4!ped-up! | %37
!ped! A,,2 x4!ped-up! |!ped! B,,2 z2 z2!ped-up! | A,,6- | A,,2 z2 z2 | z6 | %42
!f!!ped! F,,2 x4!ped-up! |!ped! G,,2 x4!ped-up! | [C,,C,]2 x4 | [B,,,B,,]2 x4 | E,,2 z2 z2 | z6 | %48
 z6 |!mp! D,6 | _D,6 | E,6 | z6 | =D,6 | _D,6 | E,6 | z6 |"_cresc." [A,,,A,,]6 | [B,,,B,,]6 | %59
 [_C,,_C,]6 | [=C,,=C,]6 |!ped! [=B,,,=B,,]6!ped-up! |!mp!!ped! [_B,,,_B,,]6!ped-up! | %63
!ped! E,,6!ped-up! | z6 |!mp! D,6 | _D,6 | E,6 | z6 | =D,6 | _D,6 | E,6 | z6 | %73
"_cresc." [A,,,A,,]6 | [B,,,B,,]6 | [_C,,_C,]6 | [=C,,=C,]6 |!f!!ped! [=B,,,=B,,]6!ped-up! | %78
!ped! [_B,,,_B,,]6!ped-up! |!ped!!mp! E,,6!ped-up! | z2!ped! z2 .[A,,,A,,]2!ped-up! | %81
!ped! z2 .[B,,,B,,]2!ped-up!!ped! z2 | .[_D,,_D,]2!ped-up!!ped! z2 .[C,,C,]2!ped-up! | %83
!ped! z2 .[E,,E,]2!ped-up!!ped! z2 | .[_D,,_D,]2!ped-up!!ped! z2 .[C,,C,]2!ped-up! | %85
!ped! z2 .[_F,,,_F,,]2!ped-up!!ped! z2 | .[A,,,A,,]2!ped-up!!ped! z2 .[B,,,B,,]2!ped-up! | %87
!ped! z2 .[C,,C,]2!ped-up!!ped! z2 | .[E,,E,]2!ped-up!!ped! z2!mp! .[A,,,A,,]2!ped-up! | %89
!ped! z2 .[B,,,B,,]2!ped-up!!ped! z2 | .[_D,,_D,]2!ped-up!!ped! z2 .[C,,C,]2!ped-up! | %91
!ped! z2 .[E,,E,]2!ped-up!!ped! z2 | .[_D,,_D,]2!ped-up!!ped! z2 .[C,,C,]2!ped-up! | %93
!ped! z2 .[_C,,_C,]2!ped-up!!ped! z2 | .[G,,,G,,]2!ped-up!!ped! z2 .[=C,,=C,]2!ped-up! | %95
!ped! z2 .[E,,E,]2!ped-up!!ped! z2 |!mp! .A,,2!ped-up!!ped! z2 .[A,,,A,,]2!ped-up! | %97
!ped! z2 .[B,,,B,,]2!ped-up!!ped! z2 | .[_D,,_D,]2!ped-up!!ped! z2 .[C,,C,]2!ped-up! | %99
!ped! z2 .[E,,E,]2!ped-up!!ped! z2 | .[_D,,_D,]2!ped-up!!ped! z2 .[C,,C,]2!ped-up! | %101
!ped! z2 .[_F,,,_F,,]2!ped-up!!ped! z2 | .[A,,,A,,]2!ped-up!!ped! z2 .[B,,,B,,]2!ped-up! | %103
!ped! z2 .[C,,C,]2!ped-up!!ped! z2 | .[E,,E,]2!ped-up!!ped! z2!mp! .[A,,,A,,]2!ped-up! | %105
!ped! z2 .[B,,,B,,]2!ped-up!!ped! z2 | .[_D,,_D,]2!ped-up!!ped! z2 .[C,,C,]2!ped-up! | %107
!ped! z2 .[E,,E,]2!ped-up!!ped! z2 | .[_D,,_D,]2!ped-up!!ped! z2 .[C,,C,]2!ped-up! | %109
!ped! z2 .[_C,,_C,]2!ped-up!!ped! z2 | .[G,,,G,,]2!ped-up!!ped! z2 .[=C,,=C,]2!ped-up! | %111
!ped! z2 .[E,,E,]2!ped-up!!ped! z2 | .[A,,,A,,]2!ped-up! z2 z2 |!mf!!ped! E,,2 x4!ped-up! | %114
!ped! A,,2 x4!ped-up! |!ped! B,,6!ped-up! | E,,2 z2 z2 | z6 | z6 |!f!!ped! C,2 x4!ped-up! | %120
!ped! E,2 x4!ped-up! |!ped! _G,6!ped-up! |!f! F,2 z2 z2 |!p! B,,2 z2 z2 | z6 | %125
!mf!!ped! E,,2 x4!ped-up! |!ped! A,,2 x4!ped-up! |!ped! B,,2 z2 z2!ped-up! | A,,6- | A,,2 z2 z2 | %130
 z6 |!f!!ped! F,,2 x4!ped-up! |!ped! G,,2 x4!ped-up! | [C,,C,]2 x4 | [B,,,B,,]2 x4 | E,,2 z2 z2 | %136
 z6 | z6 | z6 |!mp! [A,,,A,,]6 | [B,,,B,,]6 | [_C,,_C,]6 | [_D,,_D,]6 | [_D,,_D,]6 | _G,,2 z2 z2 | %145
 z6 | z6 |!mp! [A,,,A,,]6 | [B,,,B,,]6 | [_C,,_C,]6 | [_D,,_D,]4 [_C,,_C,]2- | %151
 [C,,C,]2 [B,,,B,,]4 |!ped! (E,,B,,E,G, B,2) |"_()" ([B,,E,]G,[I:staff -1] B,E G2)!ped-up! | %154
!p![I:staff +1] [_D,,_D,]4 [_C,,_C,]2- | [C,,C,]2 [B,,,B,,]4 |!ped! (E,,B,,E,G, B,2) | %157
 ([B,,E,]G,[I:staff -1] B,E G2) |[I:staff +1] (E,,B,,E,G, B,2) | %159
 ([B,,E,]G,[I:staff -1] !fermata!B,!fermata!E !fermata!G2) | %160
[I:staff +1] !fermata![E,,B,,]6!ped-up! |] %161
V:6
 x6 | x6 | x2 A,2 !>!^F,2- | x6 | x6 | x6 | x6 | x6 |[K:treble] x6 | x2 E4 |[K:bass] x6 | x6 | x6 | %13
 x6 | x2 A,4 | B,^F,!>(!G,B,_D=E!>)! | x6 | x6 | x6 | x6 | x6 | x6 | x2[K:treble] x4 | x6 | %24
[K:bass] x6 | x6 | x2 A,2 !>!^F,2- | x6 | x6 | x6 | x6 | x6 |[K:treble] x6 | x2 E4 |[K:bass] x6 | %35
 x6 | x6 | x6 | x2 (A,4 | B,)^F,G,B,_D=E | x6 | x6 | x6 | x6 | x6 | x6 | x6 | x6 | x6 | x6 | x6 | %51
 x6 | x6 | x6 | x6 | x6 | x6 | x6 | x6 |[K:treble] x6 | x6 |[K:bass] x6 | x6 | x6 | x6 | x6 | x6 | %67
 x6 | x6 | x6 | x6 | x6 | x6 | x6 | x6 |[K:treble] x6 | x6 |[K:bass] x6 | x6 | x6 | x6 | x6 | x6 | %83
[K:treble] x6 | x6 | x6 | x6 |[K:bass] x6 | x6 | x6 | x6 |[K:treble] x6 | x6 | x6 | x2[K:bass] x4 | %95
 x6 | x6 | x6 | x6 |[K:treble] x6 | x6 | x6 | x6 |[K:bass] x6 | x6 | x6 | x6 |[K:treble] x6 | x6 | %109
 x6 | x2[K:bass] x4 | x6 | x6 | x6 | x6 | x2 A,2 !>!^F,2- | x6 | x6 | x6 | x6 | x6 |[K:treble] x6 | %122
 x2 E4 |[K:bass] x6 | x6 | x6 | x6 | x2 (A,4 | B,)^F,G,B,_D=E | x6 | x6 | x6 | x6 | x6 | x6 | x6 | %136
 x6 |[K:treble] x6 | x6 | x6 | x6 | x6 | x6 | x6 | x6 | x6 | x6 | x6 | x6 | x6 | x6 | x6 | x6 | %153
 x6 | x6 | x6 | x6 | x6 | x6 | x6 | x6 |] %161

